public/svgs/quotationMark.svg

<svg width="15" height="14" viewBox="0 0 15 14" fill="none" xmlns="http://www.w3.org/2000/svg">
<path d="M6.30751 2.52724C5.15238 2.74487 4.34044 3.58193 3.87169 5.0384C3.63731 5.75827 3.52012 6.46976 3.52012 7.17289C3.52012 7.25659 3.52012 7.33193 3.52012 7.39889C3.53687 7.44911 3.55361 7.57467 3.57035 7.77556H6.30751V13.2499H0.95874V8.20246C0.95874 5.72478 1.4526 3.8163 2.44033 2.47702C3.42805 1.13773 4.71711 0.367641 6.30751 0.166748V2.52724ZM14.7701 2.52724C13.8494 2.67791 13.1462 3.19688 12.6607 4.08416C12.192 4.97144 11.9576 5.99264 11.9576 7.14777C11.9576 7.24822 11.9576 7.34867 11.9576 7.44911C11.9744 7.54956 11.9995 7.65838 12.033 7.77556H14.7701V13.2499H9.39624V8.20246C9.39624 6.21027 9.81477 4.43572 10.6518 2.8788C11.4889 1.30514 12.8616 0.401123 14.7701 0.166748V2.52724Z" fill="#FF6D3A"/>
</svg>

<svg xmlns="http://www.w3.org/2000/svg" width="15" height="14" fill="none"><path fill="#FF6D3A" d="M6.308 2.527c-1.156.218-1.968 1.055-2.436 2.511a6.866 6.866 0 0 0-.352 2.135v.226c.017.05.034.176.05.377h2.738v5.474H.958V8.202c0-2.477.495-4.386 1.482-5.725.988-1.34 2.277-2.11 3.868-2.31v2.36Zm8.462 0c-.92.15-1.624.67-2.11 1.557-.468.887-.702 1.909-.702 3.064v.301c.016.1.041.21.075.327h2.737v5.474H9.396V8.202c0-1.992.419-3.766 1.256-5.323C11.489 1.305 12.862.4 14.77.167v2.36Z"/></svg>
